X: 272
T: Gallagher's Frolics
M:6/8
R:Jig
L:1/8
K:Edor
"Em"~E3 GFE|~B3 dBA|"G"BdB BAB|~G3 "D"AFD|
"Em"~E3 GFE|~B3 dBA|"G"BAG "D"FAF|1"Em"GEE E2D:|2 GEE E2B||
"Em"e2f gfe|g2a bge|"D"~d3 fed|faf fed|
"Em"e2f gfe|"D"dfe dBA|"G"BAG "D"FAF|1"Em"GEE E2B:|2 GEE E2D||


